packages/ui-icons/svg/Solid/twitter-boxed.svg

<svg viewBox="0 0 1920 1920" version="1.1" xmlns="http://www.w3.org/2000/svg">
    <path d="M1920,311.855529 C1849.29882,345.624941 1773.40235,368.326118 1693.77882,378.716706 C1775.09647,326.199059 1837.55294,243.187294 1867.03059,144.024941 C1790.79529,192.702588 1706.31529,228.053176 1616.64,247.027294 C1544.92235,164.467294 1442.37176,112.966118 1329.20471,112.966118 C1111.45412,112.966118 935.04,302.933176 935.04,537.173176 C935.04,570.490824 938.654118,602.792 945.204706,633.850824 C617.901176,616.119059 327.303529,447.384941 133.044706,190.669647 C99.2752941,253.239059 79.7364706,326.199059 79.7364706,403.902588 C79.7364706,551.064941 170.767059,680.721412 276.48,756.956706 C211.877647,754.697882 119.378824,735.497882 119.378824,703.648471 L119.378824,709.295529 C119.378824,914.622588 233.788235,1085.95435 413.929412,1125.14494 C380.950588,1134.632 335.548235,1139.94024 299.52,1139.94024 C274.108235,1139.94024 244.065882,1137.22965 219.896471,1132.14729 C270.155294,1300.65553 413.025882,1423.30965 585.374118,1426.92376 C450.522353,1540.42965 279.303529,1608.30729 94.7576471,1608.30729 C62.9082353,1608.30729 30.72,1606.27435 0,1602.43435 C174.494118,1722.60376 381.176471,1792.96612 603.670588,1792.96612 C1328.64,1792.96612 1724.72471,1146.82965 1724.72471,586.415529 C1724.72471,568.006118 1724.27294,549.483765 1723.36941,531.300235 C1800.39529,471.554353 1867.25647,396.900235 1920,311.855529" stroke="none" stroke-width="1" fill-rule="evenodd"/>
</svg>

<svg viewBox="0 0 1920 1920" xmlns="http://www.w3.org/2000/svg">
    <path d="M1920 311.856c-70.701 33.769-146.598 56.47-226.221 66.86 81.317-52.517 143.774-135.529 173.252-234.691-76.236 48.678-160.716 84.028-250.391 103.002-71.718-82.56-174.268-134.06-287.435-134.06-217.75 0-394.165 189.966-394.165 424.206 0 33.318 3.614 65.619 10.165 96.678C617.9 616.119 327.304 447.385 133.045 190.67c-33.77 62.57-53.309 135.53-53.309 213.233 0 147.162 91.031 276.818 196.744 353.054-64.602-2.26-157.101-21.46-157.101-53.309v5.648c0 205.327 114.41 376.658 294.55 415.849-32.978 9.487-78.38 14.795-114.409 14.795-25.412 0-55.454-2.71-79.624-7.793 50.26 168.509 193.13 291.163 365.478 294.777-134.852 113.506-306.07 181.383-490.616 181.383-31.85 0-64.038-2.033-94.758-5.873 174.494 120.17 381.176 190.532 603.67 190.532 724.97 0 1121.055-646.136 1121.055-1206.55 0-18.41-.452-36.932-1.356-55.116 77.026-59.746 143.887-134.4 196.631-219.444" fill-rule="evenodd"/>
</svg>
